X: 37783
T: Song Of Oonagh, The
R: reel
M: 4/4
K: Cmajor
|E/F/|G2cG AGEF|GEcG AGEA|G>F ED CDEF|G2>F2 E2 z D|
CDEF G^FGE|GAcd e2 de|cBAG AEGE|D4 C2 z|
|:G|eeef e2 dc|Adde d2 cd|edcB cAGE|G2 AG E3 D|C>D EF GGEG|
GAcd ef de/d/|cBAG AEGE|1 D4 C2 z:|TD4 H C4||

